TuxGuitar/src-skins/Breeze/TuxGuitar/layout_compact.svg

<?xml version="1.0" encoding="UTF-8" standalone="no"?>
<svg
   viewBox="0 0 16 16"
   version="1.1"
   id="svg6"
   sodipodi:docname="layout_compact.svg"
   inkscape:version="1.2.2 (b0a8486541, 2022-12-01)"
   xmlns:inkscape="http://www.inkscape.org/namespaces/inkscape"
   xmlns:sodipodi="http://sodipodi.sourceforge.net/DTD/sodipodi-0.dtd"
   xmlns="http://www.w3.org/2000/svg"
   xmlns:svg="http://www.w3.org/2000/svg">
  <sodipodi:namedview
     id="namedview8"
     pagecolor="#ffffff"
     bordercolor="#666666"
     borderopacity="1.0"
     inkscape:showpageshadow="2"
     inkscape:pageopacity="0.0"
     inkscape:pagecheckerboard="0"
     inkscape:deskcolor="#d1d1d1"
     showgrid="true"
     inkscape:zoom="46.4375"
     inkscape:cx="7.9892328"
     inkscape:cy="7.9892328"
     inkscape:window-width="1920"
     inkscape:window-height="1021"
     inkscape:window-x="0"
     inkscape:window-y="0"
     inkscape:window-maximized="1"
     inkscape:current-layer="svg6">
    <inkscape:grid
       type="xygrid"
       id="grid284" />
  </sodipodi:namedview>
  <defs
     id="defs3051">
    <style
       type="text/css"
       id="current-color-scheme">
      .ColorScheme-Text {
        color:#232629;
      }
      </style>
  </defs>
  <path
     id="path4"
     style="fill:currentColor;fill-opacity:1;stroke:none"
     class="ColorScheme-Text"
     d="M 3 2 L 3 14 L 13 14 L 13 6 L 13 5 L 10 2 L 9 2 L 3 2 z M 4 3 L 9 3 L 9 6 L 10.705078 6 L 10.705078 9.6953125 C 10.519529 9.5537736 10.267464 9.484375 10.007812 9.484375 C 9.6339768 9.484375 9.26769 9.6190821 8.9394531 9.8105469 C 8.5109254 10.065849 8 10.513449 8 11.169922 C 8 11.735226 8.4835649 12 8.9941406 12 C 9.3679763 12 9.7323101 11.863341 10.060547 11.671875 C 10.489074 11.416574 11 10.968973 11 10.3125 C 11 10.28773 10.997934 10.263864 10.996094 10.240234 C 10.99751 10.233756 11 10.229613 11 10.222656 L 11 6 L 12 6 L 12 13 L 4 13 L 4 3 z M 7.9101562 4.5019531 L 7.7949219 4.5039062 C 7.7444099 4.5039062 7.7050781 4.5432391 7.7050781 4.59375 L 7.7050781 9.6953125 C 7.5195295 9.5537734 7.2655109 9.484375 7.0058594 9.484375 C 6.6320237 9.484375 6.26769 9.619082 5.9394531 9.8105469 C 5.5109254 10.065848 5 10.513449 5 11.169922 C 5 11.735226 5.4835649 12 5.9941406 12 C 6.3679763 12 6.7323099 11.863341 7.0605469 11.671875 C 7.4890745 11.416574 8 10.968973 8 10.3125 C 8 10.28773 7.9979337 10.263864 7.9960938 10.240234 C 7.99751 10.233756 8 10.229613 8 10.222656 L 8 4.59375 C 8 4.5432381 7.9606692 4.5019531 7.9101562 4.5019531 z " />
</svg>

<?xml version="1.0" encoding="UTF-8"?>
<svg id="svg6" version="1.1" viewBox="0 0 16 16" xmlns="http://www.w3.org/2000/svg">
 <defs id="defs3051">
  <style id="current-color-scheme" type="text/css">.ColorScheme-Text {
        color:#232629;
      }</style>
 </defs>
 <path id="path4" class="ColorScheme-Text" d="m3 2v12h10v-9l-3-3h-7zm1 1h5v3h1.7051v3.6953c-0.18555-0.14154-0.43761-0.21094-0.69727-0.21094-0.37384 0-0.74012 0.13471-1.0684 0.32617-0.42853 0.2553-0.93945 0.7029-0.93945 1.3594 0 0.5653 0.48356 0.83008 0.99414 0.83008 0.37384 0 0.73817-0.13666 1.0664-0.32812 0.42853-0.2553 0.93945-0.7029 0.93945-1.3594 0-0.02477-0.002066-0.048636-0.003906-0.072266 0.001416-0.006478 0.003906-0.010621 0.003906-0.017578v-4.2227h1v7h-8v-10zm3.9102 1.502-0.11523 0.0019531c-0.050512 0-0.089844 0.039333-0.089844 0.089844v5.1016c-0.18555-0.14154-0.43957-0.21094-0.69922-0.21094-0.37384 0-0.73817 0.13471-1.0664 0.32617-0.42853 0.2553-0.93945 0.7029-0.93945 1.3594 0 0.5653 0.48356 0.83008 0.99414 0.83008 0.37384 0 0.73817-0.13666 1.0664-0.32812 0.42853-0.2553 0.93945-0.7029 0.93945-1.3594 0-0.02477-0.0020663-0.048636-0.0039062-0.072266 0.0014162-0.006478 0.0039062-0.010621 0.0039062-0.017578v-5.6289c0-0.050512-0.039331-0.091797-0.089844-0.091797z" fill="currentColor"/>
</svg>
